X: 457
T: Can You Dance A Tobacco Hill
B: jims roots
M:4/4
L:1/8
Q: 1/4=100
K:Dmaj
V:1 
"D"Addc d2dB|AddA "G"BAGF|"D"Addc d2dA|"A"ABAG "D"FAD2|
"D"A2dc dedB|AddA "G"BAGB|"D"Addc dedB|"A"ABAG "D"FDD2:|
"D"A2FD "G"G3B|"D"A2FD "G"EFGE|"D"A2FD "G"G3B|"A"Aceg "D"fddB|
"D"ADFD "G"GABB|"D"AFAF "G"EFDF|"D"AFAF "G"GABB|"A"Aceg "A"fdd2:|
% abcbook-tune_id 6298c2458b7088c7ba6bf436


% abcbook-boost 0
% abcbook-tablature 
% abcbook-transpose 
% abcbook-lastupdated 1654178373641
% abcbook-soundfonts 
% abcbook-repeats 1


